**harmony	**harte	**kern	**silbe	**kern	**silbe	**rhyme	**timestamp	**phrase
*M4/4	*M4/4	*ICvox	*	*ICvox	*	*	*	*
*	*	*VRlead	*	*VRharmonize	*	*	*	*
*	*	*Hstimme	*	*Nstimme	*	*	*	*
*E:	*E:	*E:	*	*E:	*	*	*	*
*	*	*M4/4	*	*M4/4	*	*	*	*
*	*	*clefF4	*	*clefC3	*	*	*	*
1r;	1r	r;	.	r;	.	.	0	.
1r;	1r	r;	.	r;	.	.	0.534	.
=1	=1	=1	=1	=1	=1	=1	=1	=1
*>Letter>A	*>Letter>A	*>Letter>A	*>Letter>A	*>Letter>A	*>Letter>A	*>Letter>A	*>Letter>A	*>Letter>A
*>Label>Intro	*>Label>Intro	*>Label>Intro	*>Label>Intro	*>Label>Intro	*>Label>Intro	*>Label>Intro	*>Label>Intro	*>Label>Intro
1EMm	E:7	1r	.	1r	.	.	26.471	newline
=2	=2	=2	=2	=2	=2	=2	=2	=2
1EMm	E:7	2r	.	2r	.	.	27.125	.
.	.	4r	.	4r	.	.	.	.
.	.	8Gq	_	8B-q	_	.	.	.
.	.	8G#	Got	8B	Got	.	.	.
.	.	8G#	me	8B	me	.	.	.
=3	=3	=3	=3	=3	=3	=3	=3	=3
*>Letter>B	*>Letter>B	*>Letter>B	*>Letter>B	*>Letter>B	*>Letter>B	*>Letter>B	*>Letter>B	*>Letter>B
*>Label>Verse	*>Label>Verse	*>Label>Verse	*>Label>Verse	*>Label>Verse	*>Label>Verse	*>Label>Verse	*>Label>Verse	*>Label>Verse
1EMm	E:7	8B	run-	8d	run-	.	32.685	newline
.	.	8B	-nin'	8d	-nin'	.	.	.
.	.	4r	.	4r	.	.	.	.
.	.	8r	.	8r	.	.	.	.
.	.	8~BB	you	8~G#	you	.	.	.
.	.	8Gq	_	8B-q	_	.	.	.
.	.	8G#	got	8B	got	.	.	.
.	.	8G#	me	8B	me	.	.	.
=4	=4	=4	=4	=4	=4	=4	=4	=4
1EMm	E:7	8B	hi-	8d	hi-	.	35.314	.
.	.	8B	-din'	8d	-din'	.	.	.
.	.	4r	.	4r	.	.	.	.
.	.	8r	.	8r	.	.	.	.
.	.	8~BB	you	8~G#	you	.	.	.
.	.	8Gq	_	8B-q	_	.	.	.
.	.	8G#	got	8B	got	.	.	.
.	.	8G#	me	8B	me	.	.	.
=5	=5	=5	=5	=5	=5	=5	=5	=5
.	.	8Aq	_	8c#q	_	.	.	.
1EMm	E:7	4B	run,	4d	run,	.	37.944	.
.	.	8Aq	_	8c#q	_	.	.	.
.	.	4B	hide,	4d	hide,	.	.	.
.	.	8Aq	_	8c#q	_	.	.	.
.	.	4B	hide,	4d	hide,	.	.	.
.	.	8Aq	_	8c#q	_	.	.	.
.	.	8B	run,	8d	run,	.	.	.
.	.	[8B	a	[8d	a	.	.	.
=6	=6	=6	=6	=6	=6	=6	=6	=6
1EMm	E:7	8B]	_	8d]	_	.	40.573	.
.	.	8B	ny-	8d	ny	.	.	.
.	.	8A	-way	4r	.	.	.	.
.	.	8B	you	.	.	.	.	.
.	.	8G	wan-	2r	.	.	.	.
.	.	8F#	-na	.	.	.	.	.
.	.	8E	let	.	.	.	.	.
.	.	8D	it	.	.	.	.	.
=7	=7	=7	=7	=7	=7	=7	=7	=7
.	.	8C#q	_	.	.	.	.	.
1AMm	A:7	4.G	roll	1r	.	A	43.203	newline
.	.	8r	.	.	.	.	.	.
.	.	2r	.	.	.	.	.	.
=8	=8	=8	=8	=8	=8	=8	=8	=8
1AMm	A:7	4.B	Yeah,	4d	yeah,	.	45.792	.
.	.	.	.	8B	_	.	.	.
.	.	8A	y-	8B	yeah!	.	.	.
.	.	4B	-yeah,	[4B	_	.	.	.
.	.	8A	y-	8B]	_	.	.	.
.	.	8B	-yeah	8B	_	.	.	.
=9	=9	=9	=9	=9	=9	=9	=9	=9
.	.	8Gq	_	.	.	.	.	.
1EMm	E:7	4G#	_	1r	.	.	48.382	.
.	.	4r	.	.	.	.	.	.
.	.	2r	.	.	.	.	.	.
=10	=10	=10	=10	=10	=10	=10	=10	=10
1EMm	E:7	2r	.	1r	.	.	50.971	.
.	.	8r	.	.	.	.	.	.
.	.	8~BB	You've	.	.	.	.	.
.	.	8Gq	_	.	.	.	.	.
.	.	8G#	got	.	.	.	.	.
.	.	8G#	me	.	.	.	.	.
=11	=11	=11	=11	=11	=11	=11	=11	=11
.	.	8Aq	_	8c#q	_	.	.	.
2BMm	B:7/5	4B	doin'	4d	doin'	.	53.561	newline
.	.	8B	what	8d	what	.	.	.
.	.	8A	you	8B	you	.	.	.
2BMm	B:7	8A	want	8B	want	.	54.847	.
.	.	[8A	me,	[8B	me,	.	.	.
.	.	8A]	_	8B]	_	.	.	.
.	.	8C#	a-	8C#	a-	.	.	.
=12	=12	=12	=12	=12	=12	=12	=12	=12
.	.	8Aq	_	8c#q	_	.	.	.
2BMm	B:7/5	8B	-ba-	8d	-ba-	.	56.133	.
.	.	8B	-by,	8d	-by,	.	.	.
.	.	8A	why	8d	why	.	.	.
.	.	8G	you	8c#	you	.	.	.
2BMm	B:7	8G	wan-	8B	wan-	.	57.42	.
.	.	8F#	-na	8B	-na	.	.	.
.	.	8E	let	8A	let	.	.	.
.	.	.	.	8Gq	_	.	.	.
.	.	[8E	go	8G#	go	A	.	.
=13	=13	=13	=13	=13	=13	=13	=13	=13
1EMm	E:7	4E]	_	1r	.	.	58.706	.
.	.	4r	.	.	.	.	.	.
.	.	2r	.	.	.	.	.	.
=14	=14	=14	=14	=14	=14	=14	=14	=14
2EMm	E:7	2r	.	2r	.	.	61.279	.
2BMm	B:7	4r	.	4r	.	.	62.565	.
.	.	8Gq	_	8B-q	_	.	.	.
.	.	8G#	Go-	8B	Go-	.	.	.
.	.	8G#	-in'	8B	-in'	.	.	.
=15	=15	=15	=15	=15	=15	=15	=15	=15
*>Letter>B	*>Letter>B	*>Letter>B	*>Letter>B	*>Letter>B	*>Letter>B	*>Letter>B	*>Letter>B	*>Letter>B
*>Label>Verse	*>Label>Verse	*>Label>Verse	*>Label>Verse	*>Label>Verse	*>Label>Verse	*>Label>Verse	*>Label>Verse	*>Label>Verse
1EMm	E:7	8B	up	8d	up	.	63.852	newline
.	.	8r	.	8r	.	.	.	.
.	.	4r	.	4r	.	.	.	.
.	.	8r	.	8r	.	.	.	.
.	.	8~BB	I'm	8~G#	I'm	.	.	.
.	.	8Gq	_	8B-q	_	.	.	.
.	.	8G#	go-	8B	go-	.	.	.
.	.	8G#	-in'	8B	-in'	.	.	.
=16	=16	=16	=16	=16	=16	=16	=16	=16
1EMm	E:7	8B	down	8d	down	.	66.433	.
.	.	8r	.	8r	.	.	.	.
.	.	4r	.	4r	.	.	.	.
.	.	8r	.	8r	.	.	.	.
.	.	8~BB	I'm	8~G#	I'm	.	.	.
.	.	8Gq	_	8B-q	_	.	.	.
.	.	8G#	go-	8B	go-	.	.	.
.	.	8G#	-in'	8B	-in'	.	.	.
=17	=17	=17	=17	=17	=17	=17	=17	=17
.	.	8Aq	_	8c#q	_	.	.	.
1EMm	E:7	4B	up,	4d	up,	.	69.014	.
.	.	8Aq	_	8c#q	_	.	.	.
.	.	4B	down,	4d	down,	.	.	.
.	.	8Aq	_	8c#q	_	.	.	.
.	.	4B	down,	4d	down,	.	.	.
.	.	8Aq	_	8c#q	_	.	.	.
.	.	8B	up	8d	up	.	.	.
.	.	[8B	a	[8d	a	.	.	.
=18	=18	=18	=18	=18	=18	=18	=18	=18
1EMm	E:7	8B]	_	8d]	_	.	71.595	.
.	.	8B	ny-	8d	ny-	.	.	.
.	.	8A	-way	8~B	-way	.	.	.
.	.	8B	you	8A	you	.	.	.
.	.	8G	wan-	8G	wan	.	.	.
.	.	8F#	-na	8r	.	.	.	.
.	.	8E	let	4r	.	.	.	.
.	.	8D	it	.	.	.	.	.
=19	=19	=19	=19	=19	=19	=19	=19	=19
.	.	8C#q	_	.	.	.	.	.
1AMm	A:7	4.G	roll	1r	.	B	74.176	newline
.	.	8r	.	.	.	.	.	.
.	.	2r	.	.	.	.	.	.
=20	=20	=20	=20	=20	=20	=20	=20	=20
1AMm	A:7	4.B	Yeah,	4d	Yeah,	.	76.724	.
.	.	.	.	8B	_	.	.	.
.	.	8A	y-	8B	y-	.	.	.
.	.	4B	-yeah,	[4B	-yeah!	.	.	.
.	.	8A	y-	8B]	_	.	.	.
.	.	8B	-yeah	8B	_	.	.	.
=21	=21	=21	=21	=21	=21	=21	=21	=21
.	.	8Gq	_	.	.	.	.	.
1EMm	E:7	4.G#	_	1r	.	.	79.272	.
.	.	16F#Q	_	.	.	.	.	.
.	.	16EQ	_	.	.	.	.	.
.	.	8r	.	.	.	.	.	.
.	.	2r	.	.	.	.	.	.
=22	=22	=22	=22	=22	=22	=22	=22	=22
1EMm	E:7	2r	.	1r	.	.	81.82	.
.	.	8r	.	.	.	.	.	.
.	.	8~BB	You've	.	.	.	.	.
.	.	8Gq	_	.	.	.	.	.
.	.	8G#	got	.	.	.	.	.
.	.	8G#	me	.	.	.	.	.
=23	=23	=23	=23	=23	=23	=23	=23	=23
.	.	8Aq	_	8c#q	_	.	.	.
2BMm	B:7/5	4B	doin'	4d	doin'	.	84.368	newline
.	.	8B	what	8d	what	.	.	.
.	.	8A	you	8B	you	.	.	.
2BMm	B:7	8A	want	8B	want	.	85.641	.
.	.	[8A	me,	[8B	me,	.	.	.
.	.	8A]	_	8B]	_	.	.	.
.	.	8~C#	a'-	8~C#	a'-	.	.	.
=24	=24	=24	=24	=24	=24	=24	=24	=24
.	.	8Aq	_	8c#q	_	.	.	.
2BMm	B:7/5	8B	-ba-	8d	-ba-	.	86.914	.
.	.	8B	-by	8d	-by	.	.	.
.	.	8A	why	8d	why	.	.	.
.	.	8G	you	8c#	you	.	.	.
2BMm	B:7	8G	wan-	8B	wan-	.	88.187	.
.	.	8F#	-na	8B	-na	.	.	.
.	.	.	.	8~Gq	_	.	.	.
.	.	8E	let	8~G#	let	.	.	.
.	.	.	.	8~Gq	_	.	.	.
.	.	[8E	go	8~G#	go	B	.	.
=25	=25	=25	=25	=25	=25	=25	=25	=25
1EMm	E:7	8E]	_	1r	.	.	89.461	.
.	.	8r	.	.	.	.	.	.
.	.	4r	.	.	.	.	.	.
.	.	2r	.	.	.	.	.	.
=26	=26	=26	=26	=26	=26	=26	=26	=26
2EMm	E:7	1r	.	1r	.	.	92.007	.
2BMm	B:7	.	.	.	.	.	93.28	.
=27	=27	=27	=27	=27	=27	=27	=27	=27
*>Letter>B	*>Letter>B	*>Letter>B	*>Letter>B	*>Letter>B	*>Letter>B	*>Letter>B	*>Letter>B	*>Letter>B
*>Label>Solo	*>Label>Solo	*>Label>Solo	*>Label>Solo	*>Label>Solo	*>Label>Solo	*>Label>Solo	*>Label>Solo	*>Label>Solo
1EMm	E:7	1r	.	1r	.	.	94.553	newline
=28	=28	=28	=28	=28	=28	=28	=28	=28
1EMm	E:7	1r	.	1r	.	.	97.093	.
=29	=29	=29	=29	=29	=29	=29	=29	=29
1EMm	E:7	1r	.	1r	.	.	99.633	.
=30	=30	=30	=30	=30	=30	=30	=30	=30
1EMm	E:7	1r	.	1r	.	.	102.173	.
=31	=31	=31	=31	=31	=31	=31	=31	=31
1AMm	A:7	1r	.	1r	.	.	104.713	newline
=32	=32	=32	=32	=32	=32	=32	=32	=32
1AMm	A:7	1r	.	1r	.	.	107.215	.
=33	=33	=33	=33	=33	=33	=33	=33	=33
1EMm	E:7	1r	.	1r	.	.	109.717	.
=34	=34	=34	=34	=34	=34	=34	=34	=34
1EMm	E:7	1r	.	1r	.	.	112.22	.
=35	=35	=35	=35	=35	=35	=35	=35	=35
2BMm	B:7/5	1r	.	1r	.	.	114.722	newline
2BMm	B:7	.	.	.	.	.	115.971	.
=36	=36	=36	=36	=36	=36	=36	=36	=36
2BMm	B:7/5	1r	.	1r	.	.	117.221	.
2BMm	B:7	.	.	.	.	.	118.47	.
=37	=37	=37	=37	=37	=37	=37	=37	=37
1EMm	E:7	1r	.	1r	.	.	119.719	.
=38	=38	=38	=38	=38	=38	=38	=38	=38
2EMm	E:7	2r	.	2r	.	.	122.218	.
2BMm	B:7	8r	.	8r	.	.	123.467	.
.	.	8~BB	You've	8~E	You've	.	.	.
.	.	8Gq	_	8B-q	_	.	.	.
.	.	8G#	got	8B	got	.	.	.
.	.	8G#	me	8B	me	.	.	.
=39	=39	=39	=39	=39	=39	=39	=39	=39
*>Letter>B	*>Letter>B	*>Letter>B	*>Letter>B	*>Letter>B	*>Letter>B	*>Letter>B	*>Letter>B	*>Letter>B
*>Label>Verse	*>Label>Verse	*>Label>Verse	*>Label>Verse	*>Label>Verse	*>Label>Verse	*>Label>Verse	*>Label>Verse	*>Label>Verse
.	.	8Aq	_	8c#q	_	.	.	.
1EMm	E:7	8B	hi-	8d	hi-	.	124.717	newline
.	.	8B	-din'	8d	-din'	.	.	.
.	.	4r	.	4r	.	.	.	.
.	.	8r	.	8r	.	.	.	.
.	.	8~BB	you've	8~G#	you've	.	.	.
.	.	8Gq	_	8B-q	_	.	.	.
.	.	8G#	got	8B	got	.	.	.
.	.	8G#	me	8B	me	.	.	.
=40	=40	=40	=40	=40	=40	=40	=40	=40
.	.	8Aq	_	8c#q	_	.	.	.
1EMm	E:7	8B	pee-	8d	pee-	.	127.254	.
.	.	8B	-pin'	8d	-pin'	.	.	.
.	.	4r	.	4r	.	.	.	.
.	.	8r	.	8r	.	.	.	.
.	.	8~BB	you've	8~G#	you've	.	.	.
.	.	8Gq	_	8B-q	_	.	.	.
.	.	8G#	got	8B	got	.	.	.
.	.	8G#	me	8B	me	.	.	.
=41	=41	=41	=41	=41	=41	=41	=41	=41
.	.	8Aq	_	8c#q	_	.	.	.
1EMm	E:7	4B	peep,	4d	peep,	.	129.791	.
.	.	8Aq	_	8c#q	_	.	.	.
.	.	4B	hide,	4d	hide,	.	.	.
.	.	8Aq	_	8c#q	_	.	.	.
.	.	4B	hide,	4d	hide,	.	.	.
.	.	8Aq	_	8c#q	_	.	.	.
.	.	8B	peep	8d	peep	.	.	.
.	.	[8B	a	[8d	a	.	.	.
=42	=42	=42	=42	=42	=42	=42	=42	=42
1EMm	E:7	8B]	_	8d]	_	.	132.328	.
.	.	8A	ny-	8d	ny-	.	.	.
.	.	8B	-way	8d	-way	.	.	.
.	.	8A	you	8c#	you	.	.	.
.	.	8G	wan-	8B	wan-	.	.	.
.	.	8F#	-na	8A	-na	.	.	.
.	.	8E	let	8G	let	.	.	.
.	.	8D	it	8r	.	.	.	.
=43	=43	=43	=43	=43	=43	=43	=43	=43
.	.	8C#q	_	.	.	.	.	.
1AMm	A:7	4.G	roll	1r	.	C	134.864	newline
.	.	8r	.	.	.	.	.	.
.	.	2r	.	.	.	.	.	.
=44	=44	=44	=44	=44	=44	=44	=44	=44
1AMm	A:7	4.B	Yeah,	4d	Yeah,	.	137.371	.
.	.	.	.	8B	_	.	.	.
.	.	8A	y-	8B	y-	.	.	.
.	.	4B	-yeah,	[4B	-yeah!	.	.	.
.	.	8A	y-	8B]	_	.	.	.
.	.	8B	-yeah	8B	_	.	.	.
=45	=45	=45	=45	=45	=45	=45	=45	=45
.	.	8Gq	_	.	.	.	.	.
1EMm	E:7	4G#	_	1r	.	.	139.877	.
.	.	4r	.	.	.	.	.	.
.	.	2r	.	.	.	.	.	.
=46	=46	=46	=46	=46	=46	=46	=46	=46
1EMm	E:7	2r	.	1r	.	.	142.383	.
.	.	8r	.	.	.	.	.	.
.	.	8~BB	You've	.	.	.	.	.
.	.	8Gq	_	.	.	.	.	.
.	.	8G#	got	.	.	.	.	.
.	.	8G#	me	.	.	.	.	.
=47	=47	=47	=47	=47	=47	=47	=47	=47
.	.	8Aq	_	8c#q	_	.	.	.
2BMm	B:7/5	4B	doin'	4d	doin'	.	144.89	newline
.	.	8B	what	8d	what	.	.	.
.	.	8A	you	8B	you	.	.	.
2BMm	B:7	8A	want	8B	want	.	146.14	.
.	.	[8A	me,	[8B	me,	.	.	.
.	.	8A]	_	8B]	_	.	.	.
.	.	8~C#	a'	8~C#	a'	.	.	.
=48	=48	=48	=48	=48	=48	=48	=48	=48
.	.	8Aq	_	8c#q	_	.	.	.
2BMm	B:7/5	8B	ba-	8d	ba-	.	147.39	.
.	.	8B	-by	8d	-by	.	.	.
.	.	8A	why	8d	why	.	.	.
.	.	8G	you	8c#	you	.	.	.
2BMm	B:7	8G	wan-	8B	wan-	.	148.64	.
.	.	8F#	-na	8B	-na	.	.	.
.	.	8E	let	8A	let	.	.	.
.	.	.	.	8Gq	_	.	.	.
.	.	[8E	go	8G#	go	C	.	.
=49	=49	=49	=49	=49	=49	=49	=49	=49
1EMm	E:7	4E]	_	1r	.	.	149.89	.
.	.	4r	.	.	.	.	.	.
.	.	2r	.	.	.	.	.	.
=50	=50	=50	=50	=50	=50	=50	=50	=50
2EMm	E:7	1r	.	1r	.	.	152.39	.
2BMm	B:7	.	.	.	.	.	153.64	.
=51	=51	=51	=51	=51	=51	=51	=51	=51
*>Letter>B	*>Letter>B	*>Letter>B	*>Letter>B	*>Letter>B	*>Letter>B	*>Letter>B	*>Letter>B	*>Letter>B
*>Label>Instrumental	*>Label>Instrumental	*>Label>Instrumental	*>Label>Instrumental	*>Label>Instrumental	*>Label>Instrumental	*>Label>Instrumental	*>Label>Instrumental	*>Label>Instrumental
1EMm	E:7	1r	.	1r	.	.	154.891	newline
=52	=52	=52	=52	=52	=52	=52	=52	=52
1EMm	E:7	1r	.	1r	.	.	157.376	.
=53	=53	=53	=53	=53	=53	=53	=53	=53
1EMm	E:7	1r	.	1r	.	.	159.862	.
=54	=54	=54	=54	=54	=54	=54	=54	=54
1EMm	E:7	1r	.	1r	.	.	162.347	.
=55	=55	=55	=55	=55	=55	=55	=55	=55
1AMm	A:7	1r	.	1r	.	.	164.833	newline
=56	=56	=56	=56	=56	=56	=56	=56	=56
1AMm	A:7	1r	.	1r	.	.	165.635	.
=57	=57	=57	=57	=57	=57	=57	=57	=57
1EMm	E:7	1r	.	1r	.	.	166.438	.
=58	=58	=58	=58	=58	=58	=58	=58	=58
1EMm	E:7	1r	.	1r	.	.	167.24	.
1r;	1r	r;	.	r;	.	.	168.043	.
1r;	1r	r;	.	r;	.	.	170.499	.
*-	*-	*-	*-	*-	*-	*-	*-	*-
!!!BillboardChartDate: 1960/05/16, 1960/04/04
!!!BillboardPeak: 37, 37
!!!BillboardWeeksOnChart: 14, 14
!!!COC: Jimmy Reed
!!!ENC: Nathaniel Condit-Schultz
!!!EST: Awating manual error checking and editing.
!!!OTL: Baby What You Want Me To Do
!!!RDF**chordsym: original McGill chord annotation + (implied pitch class set, with bass pitch in first position)
!!!RDF**harmony: **recip + pitch class of root + harmonic quality
!!!RDF**leadinstrument: original McGill primary instrumentation annotation
!!!RDF**phrase: newline = linebreak in original McGill transcription
!!!RDF**timestamp: McGill audio timestamp in seconds
!!!RDT: 2017/01/12/
!!!SampleActualRank: 93, 80
!!!SampleID#: 1024, 1263
!!!SampleTargetRank: 93, 79
!!!MBID: 74289b6b-e166-4c1b-a094-a68d006cd030
